brandFactory_export/1.Light/Comprar datos_1Light.svg

<?xml version="1.0" encoding="UTF-8"?>
<svg width="24px" height="24px" viewBox="0 0 24 24" version="1.1" xmlns="http://www.w3.org/2000/svg" xmlns:xlink="http://www.w3.org/1999/xlink">
    <title>1.Light/Comprar datos_1Light</title>
    <g id="Symbols" stroke="none" stroke-width="1" fill="none" fill-rule="evenodd">
        <g id="1.Light/Comprar-datos_1Light" fill="#5CB615" fill-rule="nonzero">
            <path d="M10.1714286,20.3193277 C11.2168067,20.3193277 11.8184874,20.9210084 11.8184874,21.9663866 C11.8184874,23.0117647 11.2201681,23.6134454 10.1714286,23.6134454 C9.12605042,23.6134454 8.52436975,23.0117647 8.52436975,21.9663866 C8.52436975,20.9210084 9.12605042,20.3193277 10.1714286,20.3193277 Z M16.7260504,20.3193277 C17.7714286,20.3193277 18.3731092,20.9210084 18.3731092,21.9663866 C18.3731092,23.0117647 17.7747899,23.6134454 16.7260504,23.6134454 C15.6806723,23.6134454 15.0789916,23.0117647 15.0789916,21.9663866 C15.0789916,20.9210084 15.6806723,20.3193277 16.7260504,20.3193277 Z M10.1714286,20.9915966 C9.49579832,20.9915966 9.19663866,21.2907563 9.19663866,21.9663866 C9.19663866,22.6420168 9.49579832,22.9411765 10.1714286,22.9411765 C10.8470588,22.9411765 11.1462185,22.6420168 11.1462185,21.9663866 C11.1462185,21.2907563 10.8470588,20.9915966 10.1714286,20.9915966 Z M16.7260504,20.9915966 C16.0504202,20.9915966 15.7512605,21.2907563 15.7512605,21.9663866 C15.7512605,22.6420168 16.0504202,22.9411765 16.7260504,22.9411765 C17.4016807,22.9411765 17.7008403,22.6420168 17.7008403,21.9663866 C17.7008403,21.2907563 17.4016807,20.9915966 16.7260504,20.9915966 Z M2.30588235,2.7000624e-13 C3.01176471,2.7000624e-13 3.69747899,0.221848739 4.23529412,0.628571429 C4.78319328,1.03865546 5.14621849,1.61344538 5.2605042,2.24537815 C5.3289433,2.62959767 5.57794508,4.10791547 5.87744166,5.89885198 L10.1843613,5.899 L10.1848739,4.13445378 L10.1853613,4.121 L10.192631,4.02565601 C10.3365261,3.06031435 12.4570269,2.61848739 14.4302521,2.61848739 C16.4653067,2.61848739 18.6570112,3.08843677 18.6755123,4.11794525 C18.6755439,4.12227575 18.6756303,4.12667449 18.6756303,4.13109244 L18.6753613,5.902 L23.2806723,5.90252101 C23.4655462,5.90252101 23.6168067,6.05378151 23.6168067,6.23865546 C23.6168067,6.26554622 23.6134454,6.29579832 23.6067227,6.32268908 C23.4218487,7.05546218 23.0722689,8.46386555 22.6991597,9.95630252 C22.2487395,11.7714286 21.7815126,13.6470588 21.6403361,14.1915966 C21.3378151,15.3613445 20.9008403,16.2184874 20.312605,16.810084 C19.7042017,17.4084034 18.9411765,17.7142857 18.0369748,17.7142857 L10.1714286,17.7142857 C9.25378151,17.7142857 8.44033613,17.4084034 7.82521008,16.8268908 C7.1697479,16.2084034 6.74621849,15.3109244 6.56134454,14.1546218 C6.38991597,13.0756303 4.78655462,3.43529412 4.59495798,2.36302521 C4.51092437,1.89915966 4.24201681,1.47563025 3.82857143,1.16638655 C3.40840336,0.847058824 2.86722689,0.672268908 2.30588235,0.672268908 L0.339495798,0.672268908 C0.154621849,0.672268908 0.0033613445,0.521008403 0.0033613445,0.336134454 C0.0033613445,0.151260504 0.154621849,2.7000624e-13 0.339495798,2.7000624e-13 L2.30588235,2.7000624e-13 Z M18.6756303,13.5159664 C18.6756303,14.5546218 16.4773109,15.0252101 14.4302521,15.0252101 C12.3865546,15.0252101 10.1848739,14.5512605 10.1848739,13.512605 L10.1843613,6.571 L5.98985539,6.57154222 C6.50952502,9.6833757 7.12623235,13.4041932 7.22689076,14.0504202 C7.52941176,15.9798319 8.57815126,17.0453782 10.1714286,17.0453782 L18.0369748,17.0453782 C18.7663866,17.0453782 19.3546218,16.810084 19.8352941,16.3294118 C20.3327731,15.8319328 20.7193277,15.0554622 20.9882353,14.0201681 C21.1294118,13.4789916 21.5932773,11.6033613 22.0470588,9.79159664 C22.3563025,8.54789916 22.6521008,7.35798319 22.8504202,6.57478992 L18.6753613,6.574 L18.6756303,13.5159664 Z M18.0033613,11.2571429 C17.7519153,11.3933428 17.4410366,11.5070105 17.0913871,11.5989604 C17.0660188,11.6047625 17.0417469,11.6110041 17.0172982,11.617143 C16.9779216,11.6278448 16.9370338,11.6376905 16.8956925,11.6472566 C16.8767096,11.6509019 16.8584829,11.6550543 16.8401716,11.659153 C16.6104737,11.7111829 16.3663386,11.7541855 16.1139038,11.7888657 C16.0358483,11.7992823 15.9572896,11.8092062 15.8780877,11.8183442 C15.8638191,11.8202298 15.8492049,11.8218819 15.8345701,11.8235074 C15.7729766,11.8301395 15.7114706,11.8364847 15.6496677,11.8423675 C15.6124509,11.8460694 15.574356,11.8495017 15.5361664,11.8527605 C15.4825764,11.8572097 15.4292852,11.8614166 15.3758498,11.8652885 C15.3202426,11.8694032 15.2642247,11.8730747 15.2081028,11.8763828 C15.1562907,11.8793819 15.1045936,11.882124 15.0528419,11.8845596 C15.0152668,11.8863632 14.9772353,11.887983 14.9391921,11.8894384 C14.8910406,11.8912599 14.8429926,11.8928394 14.7949511,11.8941574 C14.7492767,11.8954199 14.7035618,11.896435 14.6578836,11.897215 C14.5816237,11.8985135 14.5058348,11.8991597 14.4302521,11.8991597 C14.3548169,11.8991597 14.2791665,11.8985139 14.2034195,11.8972179 L14.4302521,11.8991597 C14.309074,11.8991597 14.1873525,11.8975025 14.0655762,11.8941685 C14.018449,11.8928469 13.9710893,11.8912902 13.9237487,11.8894777 C13.8837598,11.8880016 13.8440819,11.8863093 13.8044353,11.8844373 C13.7671803,11.8825976 13.729836,11.8806647 13.692533,11.8785709 C13.6187878,11.8745502 13.5451506,11.8697997 13.4717875,11.8644175 C13.4247551,11.8607889 13.3778335,11.8570627 13.331053,11.8530748 C13.2880063,11.8496309 13.2452682,11.8457734 13.2026712,11.841696 C13.152488,11.8366153 13.1020191,11.8314355 13.051787,11.8259422 C13.0266274,11.8235239 13.0017033,11.8207251 12.9768426,11.8178489 C12.9017296,11.8087682 12.8272098,11.7993364 12.7533947,11.7891907 C12.4993171,11.7548751 12.2532881,11.7115964 12.0208133,11.6596549 C12.0034617,11.654824 11.9852302,11.6506657 11.9670857,11.6464534 C11.9249601,11.6376905 11.8840765,11.6278448 11.8436726,11.6177184 C11.8207762,11.6108693 11.7971212,11.604783 11.7736398,11.5985987 C11.4220892,11.507441 11.1101148,11.3936007 10.8571429,11.2571429 L10.8571429,13.5159664 C10.8571429,13.5630252 11.0184874,13.8016807 11.7613445,14.0235294 C12.4672269,14.2352941 13.4151261,14.3529412 14.4302521,14.3529412 C15.4453782,14.3529412 16.389916,14.2352941 17.0991597,14.0235294 C17.8453782,13.7983193 18.0033613,13.5596639 18.0033613,13.5159664 L18.0033613,11.2571429 Z M10.8571429,8.12773109 L10.8571429,10.3865546 L10.8571429,10.3865546 C10.8571429,10.4336134 11.0184874,10.6722689 11.7613445,10.8941176 C12.4672269,11.1092437 13.4151261,11.2268908 14.4302521,11.2268908 C15.4453782,11.2268908 16.389916,11.1092437 17.0991597,10.897479 C17.8453782,10.6722689 18.0033613,10.4336134 18.0033613,10.389916 L18.0033613,8.13109244 C17.6324267,8.33201539 17.1321526,8.48390309 16.568872,8.58936963 C16.5313359,8.59556453 16.4942732,8.60228836 16.4569597,8.60881369 C16.4271176,8.61476491 16.3967864,8.61988466 16.3663014,8.62487582 C16.3341563,8.62948793 16.3021143,8.63459164 16.2699147,8.63955438 C16.1052248,8.66541324 15.9358018,8.68707291 15.7637515,8.7050991 C15.7252796,8.70887258 15.6875294,8.7126555 15.6496677,8.71626438 C15.6124509,8.72001893 15.574356,8.72345132 15.5361664,8.72671007 C15.4825764,8.73112588 15.4292852,8.73533768 15.3758498,8.73921374 C15.3202426,8.7433528 15.2642247,8.74702424 15.2081028,8.75033236 C15.1562907,8.75332066 15.1045936,8.75606495 15.0528419,8.75850222 C15.022601,8.75996837 14.9919132,8.76130124 14.9612157,8.76252702 C14.7839839,8.76959364 14.606557,8.77310924 14.4302521,8.77310924 C14.2547361,8.77310924 14.0780549,8.76961356 13.9017032,8.7625647 C13.86909,8.76131052 13.8367523,8.75990238 13.8044353,8.75837454 C13.7671803,8.75654715 13.729836,8.75461425 13.692533,8.75252044 C13.6187878,8.7484735 13.5451506,8.74371508 13.4717875,8.73832262 C13.4247551,8.73473845 13.3778335,8.73101225 13.331053,8.72702435 C13.2880063,8.72350527 13.2452682,8.7196388 13.2026712,8.7155515 C13.172026,8.71244195 13.1409712,8.70933342 13.1100003,8.70610681 C13.0328664,8.69825868 12.956769,8.68956094 12.8813174,8.6801332 C12.7493325,8.66341918 12.6192982,8.6446831 12.49195,8.623692 C12.4626484,8.61908907 12.4329927,8.61405342 12.4034927,8.60889328 C12.3431863,8.59812342 12.2839652,8.58714279 12.2254631,8.57564921 C12.2099711,8.57280546 12.1945352,8.56972437 12.1791508,8.56660705 L12.165251,8.56358594 C12.0132773,8.53254166 11.8664202,8.49796841 11.7260442,8.4598137 C11.7009146,8.45301484 11.6759254,8.44603755 11.651152,8.43894359 C11.5078717,8.39799082 11.371873,8.3531833 11.2446468,8.30444841 C11.238068,8.30162086 11.2309562,8.29886808 11.2238721,8.2961028 C11.1649018,8.27345772 11.1081533,8.24976227 11.0534702,8.22521233 C11.0468766,8.22174626 11.0396401,8.21845983 11.0324402,8.21515814 C10.9768101,8.19021887 10.9240012,8.16418118 10.8735023,8.13725571 L10.8571429,8.12773109 L10.8571429,8.12773109 Z M10.8571429,5.00168067 L10.8571429,7.2605042 L10.8571429,7.2605042 C10.8571429,7.30756303 11.0184874,7.54621849 11.7613445,7.76806723 C12.4672269,7.97983193 13.4151261,8.10084034 14.4302521,8.10084034 C15.4453782,8.10084034 16.389916,7.98319328 17.0991597,7.77142857 C17.8453782,7.54621849 18.0033613,7.30756303 18.0033613,7.26386555 L18.0033613,5.00504202 C17.1966387,5.44201681 15.7781513,5.64705882 14.4302521,5.64705882 C13.0823529,5.64705882 11.6672269,5.43865546 10.8571429,5.00168067 Z M14.4302521,3.29411765 C13.4184874,3.29411765 12.4705882,3.41176471 11.7613445,3.62352941 C11.0715486,3.83265306 10.883159,4.05336992 10.8597655,4.12151187 L10.8571429,4.13445378 L10.8571429,4.13445378 C10.8571429,4.18151261 11.0184874,4.42016807 11.7613445,4.64201681 C12.4672269,4.85378151 13.4151261,4.97142857 14.4302521,4.97142857 C15.4453782,4.97142857 16.389916,4.85378151 17.0991597,4.64201681 C17.8453782,4.41680672 18.0033613,4.17815126 18.0033613,4.13109244 C18.0033613,4.08403361 17.8420168,3.84537815 17.0991597,3.62016807 C16.389916,3.41176471 15.4453782,3.29411765 14.4302521,3.29411765 Z" id="Comprar-datos_1Light"></path>
        </g>
    </g>
</svg>

<svg width="24" height="24" viewBox="0 0 24 24" xmlns="http://www.w3.org/2000/svg"><path d="M10.171 20.32c1.046 0 1.647.601 1.647 1.646 0 1.046-.598 1.647-1.647 1.647-1.045 0-1.647-.601-1.647-1.647 0-1.045.602-1.647 1.647-1.647zm6.555 0c1.045 0 1.647.601 1.647 1.646 0 1.046-.598 1.647-1.647 1.647-1.045 0-1.647-.601-1.647-1.647 0-1.045.602-1.647 1.647-1.647zm-6.555.672c-.675 0-.974.299-.974.974 0 .676.299.975.974.975.676 0 .975-.299.975-.975 0-.675-.299-.974-.975-.974zm6.555 0c-.676 0-.975.299-.975.974 0 .676.3.975.975.975.676 0 .975-.299.975-.975 0-.675-.3-.974-.975-.974zM2.306 0a3.21 3.21 0 011.93.629c.547.41.91.984 1.025 1.616.068.385.317 1.863.616 3.654h4.307V4.134l.001-.013.008-.095c.144-.966 2.264-1.408 4.237-1.408 2.035 0 4.227.47 4.246 1.5V5.902h4.605a.337.337 0 01.326.42c-.185.733-.535 2.142-.908 3.634-.45 1.815-.917 3.691-1.059 4.236-.302 1.17-.74 2.026-1.327 2.618-.609.598-1.372.904-2.276.904h-7.866c-.917 0-1.73-.306-2.346-.887-.655-.619-1.079-1.516-1.264-2.672-.171-1.08-1.774-10.72-1.966-11.792a1.932 1.932 0 00-.766-1.197A2.524 2.524 0 002.306.672H.339A.337.337 0 01.003.336C.003.151.155 0 .34 0h1.967zm16.37 13.516c0 1.039-2.199 1.51-4.246 1.51-2.043 0-4.245-.475-4.245-1.513V6.57H5.99c.52 3.112 1.136 6.833 1.237 7.48.302 1.929 1.351 2.994 2.944 2.994h7.866c.73 0 1.318-.235 1.798-.716.498-.497.884-1.274 1.153-2.309.141-.541.605-2.417 1.06-4.228.308-1.244.604-2.434.802-3.217l-4.175-.001v6.942zm-.673-2.259c-.251.136-.562.25-.912.342l-.074.018-.121.03-.056.012a8.609 8.609 0 01-1.005.165 15.02 15.02 0 01-.627.052 14.4 14.4 0 01-1.005.021l.227.002a13.333 13.333 0 01-1.453-.081 8.737 8.737 0 01-.956-.158l-.054-.014a3.115 3.115 0 01-.123-.028l-.07-.02a4.148 4.148 0 01-.917-.34v2.258c0 .047.161.286.904.508.706.211 1.654.329 2.67.329 1.014 0 1.959-.118 2.668-.33.746-.225.904-.463.904-.507v-2.259zm-7.146-3.13v2.26c0 .047.161.285.904.507.706.215 1.654.333 2.67.333 1.014 0 1.959-.118 2.668-.33.746-.225.904-.463.904-.507V8.13c-.37.201-.87.353-1.434.458l-.112.02-.09.016c-.033.004-.065.01-.097.015a9.967 9.967 0 01-.506.065l-.114.011a7.43 7.43 0 01-.274.023 10.915 10.915 0 01-.415.024 13.342 13.342 0 01-1.758-.047l-.093-.01a10.036 10.036 0 01-.93-.14l-.015-.002a7.082 7.082 0 01-.514-.125 4.916 4.916 0 01-.406-.135l-.021-.008a3.334 3.334 0 01-.17-.07c-.007-.004-.014-.008-.022-.01a2.584 2.584 0 01-.158-.079l-.017-.01zm0-3.125V7.26c0 .047.161.285.904.507.706.212 1.654.333 2.67.333 1.014 0 1.959-.118 2.668-.33.746-.225.904-.463.904-.507V5.005c-.806.437-2.225.642-3.573.642-1.348 0-2.763-.208-3.573-.645zm3.573-1.708c-1.012 0-1.96.118-2.669.33-.69.209-.878.43-.901.498l-.003.012c0 .048.161.286.904.508.706.212 1.654.33 2.67.33 1.014 0 1.959-.118 2.668-.33.746-.225.904-.464.904-.51 0-.048-.161-.287-.904-.512-.71-.208-1.654-.326-2.669-.326z" fill="#5CB615" fill-rule="nonzero"/></svg>
